lib/svgs/team-graph.svg

<?xml version="1.0" encoding="UTF-8"?>
<svg width="16px" height="16px" viewBox="0 0 16 16" version="1.1" xmlns="http://www.w3.org/2000/svg" xmlns:xlink="http://www.w3.org/1999/xlink">
    <!-- Generator: sketchtool 51.3 (57544) - http://www.bohemiancoding.com/sketch -->
    <title>team/team-graph</title>
    <desc>Created with sketchtool.</desc>
    <defs></defs>
    <g id="Icons" stroke="none" stroke-width="1" fill="none" fill-rule="evenodd">
        <g id="Web" transform="translate(-435.000000, -2394.000000)" fill="#000000">
            <g id="team/team-graph" transform="translate(435.000000, 2394.000000)">
                <path d="M3.63636364,10.9090909 L0.727272727,10.9090909 C0.290909091,10.9090909 0,11.2 0,11.6363636 L0,15.2727273 C0,15.7090909 0.290909091,16 0.727272727,16 L3.63636364,16 C4.07272727,16 4.36363636,15.7090909 4.36363636,15.2727273 L4.36363636,11.6363636 C4.36363636,11.2 4.07272727,10.9090909 3.63636364,10.9090909 L3.63636364,10.9090909 M9.45454545,8 L6.54545455,8 C6.10909091,8 5.81818182,8.29090909 5.81818182,8.72727273 L5.81818182,15.2727273 C5.81818182,15.7090909 6.10909091,16 6.54545455,16 L9.45454545,16 C9.89090909,16 10.1818182,15.7090909 10.1818182,15.2727273 L10.1818182,8.72727273 C10.1818182,8.29090909 9.89090909,8 9.45454545,8 L9.45454545,8 M15.2727273,5.09090909 L12.3636364,5.09090909 C11.9272727,5.09090909 11.6363636,5.38181818 11.6363636,5.81818182 L11.6363636,15.2727273 C11.6363636,15.7090909 11.9272727,16 12.3636364,16 L15.2727273,16 C15.7090909,16 16,15.7090909 16,15.2727273 L16,5.81818182 C16,5.38181818 15.7090909,5.09090909 15.2727273,5.09090909 L15.2727273,5.09090909 M2.90909091,7.27272727 C3.12727273,7.27272727 3.27272727,7.2 3.41818182,7.05454545 L5.81818182,4.65454545 L7.49090909,6.32727273 C7.78181818,6.61818182 8.21818182,6.61818182 8.50909091,6.32727273 L12.3636364,2.47272727 L12.3636364,3.63636364 C12.3636364,4.07272727 12.6545455,4.36363636 13.0909091,4.36363636 C13.5272727,4.36363636 13.8181818,4.07272727 13.8181818,3.63636364 L13.8181818,0.727272727 C13.8181818,0.654545455 13.8181818,0.509090909 13.7454545,0.436363636 C13.6727273,0.290909091 13.5272727,0.145454545 13.3818182,0.0727272727 C13.3090909,8.8817842e-16 13.1636364,8.8817842e-16 13.0909091,8.8817842e-16 L10.1818182,8.8817842e-16 C9.74545455,8.8817842e-16 9.45454545,0.290909091 9.45454545,0.727272727 C9.45454545,1.16363636 9.74545455,1.45454545 10.1818182,1.45454545 L11.3454545,1.45454545 L8,4.8 L6.32727273,3.12727273 C6.03636364,2.83636364 5.6,2.83636364 5.30909091,3.12727273 L2.4,6.03636364 C2.10909091,6.32727273 2.10909091,6.76363636 2.4,7.05454545 C2.54545455,7.2 2.69090909,7.27272727 2.90909091,7.27272727 L2.90909091,7.27272727" id="Shape"></path>
            </g>
        </g>
    </g>
</svg>

<svg xmlns="http://www.w3.org/2000/svg" viewBox="0 0 16 16">
    <path d="M3.636 10.91H.727c-.436 0-.727.29-.727.726v3.637c0 .436.29.727.727.727h2.91c.436 0 .727-.29.727-.727v-3.637c0-.436-.291-.727-.728-.727M9.455 8h-2.91c-.436 0-.727.29-.727.727v6.546c0 .436.291.727.727.727h2.91c.436 0 .727-.29.727-.727V8.727c0-.436-.291-.727-.727-.727m5.818-2.91h-2.91c-.436 0-.727.292-.727.728v9.455c0 .436.291.727.728.727h2.909c.436 0 .727-.29.727-.727V5.818c0-.436-.29-.727-.727-.727M2.909 7.273a.66.66 0 0 0 .51-.218l2.4-2.4L7.49 6.327c.29.291.727.291 1.018 0l3.855-3.854v1.163c0 .437.29.728.727.728.436 0 .727-.291.727-.728V.727c0-.072 0-.218-.073-.29a.876.876 0 0 0-.363-.364C13.309 0 13.164 0 13.09 0h-2.91c-.436 0-.726.29-.726.727s.29.728.727.728h1.163L8 4.8 6.327 3.127a.703.703 0 0 0-1.018 0L2.4 6.037a.703.703 0 0 0 0 1.018.66.66 0 0 0 .51.218"/>
</svg>
